svg/fluentui-system-icons/ic_fluent_content_view_28_regular.svg

<svg width="28" height="28" viewBox="0 0 28 28" fill="none" xmlns="http://www.w3.org/2000/svg">
<path d="M6.75 3C4.67893 3 3 4.67893 3 6.75V21.25C3 23.3211 4.67893 25 6.75 25H21.25C23.3211 25 25 23.3211 25 21.25V6.75C25 4.67893 23.3211 3 21.25 3H6.75ZM4.5 6.75C4.5 5.50736 5.50736 4.5 6.75 4.5H21.25C22.4926 4.5 23.5 5.50736 23.5 6.75V21.25C23.5 22.4926 22.4926 23.5 21.25 23.5H6.75C5.50736 23.5 4.5 22.4926 4.5 21.25V6.75ZM6 9C6 7.89543 6.89543 7 8 7H20C21.1046 7 22 7.89543 22 9V11C22 12.1046 21.1046 13 20 13H8C6.89543 13 6 12.1046 6 11V9ZM8 8.5C7.72386 8.5 7.5 8.72386 7.5 9V11C7.5 11.2761 7.72386 11.5 8 11.5H20C20.2761 11.5 20.5 11.2761 20.5 11V9C20.5 8.72386 20.2761 8.5 20 8.5H8ZM6 15.75C6 15.3358 6.33579 15 6.75 15H12.25C12.6642 15 13 15.3358 13 15.75C13 16.1642 12.6642 16.5 12.25 16.5H6.75C6.33579 16.5 6 16.1642 6 15.75ZM6.75 18.75C6.33579 18.75 6 19.0858 6 19.5C6 19.9142 6.33579 20.25 6.75 20.25H12.25C12.6642 20.25 13 19.9142 13 19.5C13 19.0858 12.6642 18.75 12.25 18.75H6.75ZM15.5 16.25C15.5 15.2835 16.2835 14.5 17.25 14.5H20.25C21.2165 14.5 22 15.2835 22 16.25V19.25C22 20.2165 21.2165 21 20.25 21H17.25C16.2835 21 15.5 20.2165 15.5 19.25V16.25ZM17.25 16C17.1119 16 17 16.1119 17 16.25V19.25C17 19.3881 17.1119 19.5 17.25 19.5H20.25C20.3881 19.5 20.5 19.3881 20.5 19.25V16.25C20.5 16.1119 20.3881 16 20.25 16H17.25Z" fill="#212121"/>
</svg>

<svg xmlns="http://www.w3.org/2000/svg" width="28" height="28"><path d="M6.75 3A3.75 3.75 0 0 0 3 6.75v14.5A3.75 3.75 0 0 0 6.75 25h14.5A3.75 3.75 0 0 0 25 21.25V6.75A3.75 3.75 0 0 0 21.25 3H6.75ZM4.5 6.75A2.25 2.25 0 0 1 6.75 4.5h14.5a2.25 2.25 0 0 1 2.25 2.25v14.5a2.25 2.25 0 0 1-2.25 2.25H6.75a2.25 2.25 0 0 1-2.25-2.25V6.75ZM6 9a2 2 0 0 1 2-2h12a2 2 0 0 1 2 2v2a2 2 0 0 1-2 2H8a2 2 0 0 1-2-2V9Zm2-.5a.5.5 0 0 0-.5.5v2a.5.5 0 0 0 .5.5h12a.5.5 0 0 0 .5-.5V9a.5.5 0 0 0-.5-.5H8Zm-2 7.25a.75.75 0 0 1 .75-.75h5.5a.75.75 0 0 1 0 1.5h-5.5a.75.75 0 0 1-.75-.75Zm.75 3a.75.75 0 0 0 0 1.5h5.5a.75.75 0 0 0 0-1.5h-5.5Zm8.75-2.5c0-.966.784-1.75 1.75-1.75h3c.966 0 1.75.784 1.75 1.75v3A1.75 1.75 0 0 1 20.25 21h-3a1.75 1.75 0 0 1-1.75-1.75v-3Zm1.75-.25a.25.25 0 0 0-.25.25v3c0 .138.112.25.25.25h3a.25.25 0 0 0 .25-.25v-3a.25.25 0 0 0-.25-.25h-3Z"/></svg>
